X: 1
T:Hacking \& Hewing
M:6/8
C:Davis Sweet
S:RJJ ex NTMM
N:Lummoxshire Lead Miners
A:Amble on Down
O:Ale
R:Jig
%P:(AB)$^4$
P:(AB)4
K:G
I:speed 200
P:A
|: F | GFG AGA | BAB c3 | BAB AGA | G3 z2 :|\
P:B
|: F | dcd cBc | BAB A3 | dcd cBc | B3 z2 \
   F | GFG AGA | BAB c3 | BAB AGA | G3 z2 :|
